assets/img/svg/alert-circle.svg

<svg width="27" height="27" viewBox="0 0 27 27" fill="none" xmlns="http://www.w3.org/2000/svg">
<path d="M13.5 2.53125C7.45189 2.53125 2.53125 7.45189 2.53125 13.5C2.53125 19.5481 7.45189 24.4688 13.5 24.4688C19.5481 24.4688 24.4688 19.5481 24.4688 13.5C24.4688 7.45189 19.5481 2.53125 13.5 2.53125ZM13.5 19.4015C13.2914 19.4015 13.0875 19.3396 12.914 19.2238C12.7406 19.1079 12.6054 18.9431 12.5256 18.7504C12.4458 18.5577 12.4249 18.3456 12.4656 18.1411C12.5063 17.9365 12.6067 17.7485 12.7542 17.601C12.9017 17.4535 13.0897 17.3531 13.2942 17.3124C13.4988 17.2717 13.7109 17.2926 13.9036 17.3724C14.0963 17.4522 14.2611 17.5874 14.3769 17.7609C14.4928 17.9343 14.5547 18.1382 14.5547 18.3468C14.5547 18.6265 14.4436 18.8948 14.2458 19.0926C14.048 19.2904 13.7797 19.4015 13.5 19.4015ZM14.6454 8.79398L14.3427 15.2276C14.3427 15.4514 14.2538 15.666 14.0956 15.8242C13.9373 15.9824 13.7227 16.0713 13.4989 16.0713C13.2752 16.0713 13.0606 15.9824 12.9023 15.8242C12.7441 15.666 12.6552 15.4514 12.6552 15.2276L12.3525 8.79715V8.79451C12.3459 8.63996 12.3706 8.48567 12.4251 8.34092C12.4797 8.19617 12.563 8.06397 12.67 7.95226C12.777 7.84056 12.9056 7.75166 13.0478 7.69094C13.1901 7.63021 13.3432 7.5989 13.4979 7.5989C13.6526 7.5989 13.8057 7.63021 13.9479 7.69094C14.0902 7.75166 14.2187 7.84056 14.3257 7.95226C14.4328 8.06397 14.5161 8.19617 14.5706 8.34092C14.6252 8.48567 14.6499 8.63996 14.6433 8.79451L14.6454 8.79398Z" fill="#1C62AE"/>
</svg>

<svg width="27" height="27" fill="none" xmlns="http://www.w3.org/2000/svg"><path d="M13.5 2.531c-6.048 0-10.969 4.92-10.969 10.969 0 6.048 4.92 10.969 10.969 10.969 6.048 0 10.969-4.92 10.969-10.969 0-6.048-4.92-10.969-10.969-10.969zm0 16.87a1.056 1.056 0 110-2.11 1.056 1.056 0 010 2.11zm1.145-10.607l-.302 6.434a.844.844 0 11-1.688 0l-.303-6.43v-.003a1.148 1.148 0 011.596-1.104 1.146 1.146 0 01.695 1.104l.002-.001z" fill="#1C62AE"/></svg>
